X: 2
T: Sonny's
R: mazurka
M: 3/4
L: 1/8
K: Dmaj
A2 AG FA | d2 d2 BA | GF GB AG | FG EF DF |A2 AG FA | d2 d2 BA | G2 Gg fe | d2 d2 :|f2 fa gf | e2 eg fe | dc df ed | cd Bc Ad |f2 f2 (3agf | e2 eg fe | dc df (3edc | d2 d2 :|


Tune 5476	Setting 5476

